X: 95
T: Scotch Hornpipe
R: reel
B: NEFR #95
Z: 2012 John Chambers <jc:trillian.mit.edu>
M: C|
L: 1/8
K: D
|:"D"D3  D D2 FE | "D"DE FA "G"B2 "A7"A2 | "Bm"BA FA BA FD | "E(m)7"EF ED "A7"B,D A,2 |
| "D"D3  D D2 FE | "D"DE FA "G"B2 "A7"A2 | "Bm"BA FA "Em"Bc de | "A7"fa ec "D"d4 :|
|:"D"f3  f fg fe | "D"de fd "G"B2 "A7"A2 | "Bm"Bd Ad Bd AF | "E7"EF ED "A7"B,D A,2 |
| "D"D2 DD D2 FE | "D"DE FA "G"B2 "A7"A2 | "Bm"BA FG "Em"Bc de | "A7"fa ec "D"d4 :|
